X:1
T:Bodø, 88.88.88.88.88
T:Bodø, 88.88.88.88.88
T:Joseph Lincoln Hall, 1902
T:Public Domain Courtesy of the Cyber Hymnal™
C:Joseph Lincoln Hall, 1902
Z:Public Domain
Z:Courtesy of the Cyber Hymnal™
%%score ( 1 2 ) 3
L:1/8
Q:1/4=88
M:3/4
K:Bb
V:1 treble 
V:2 treble 
V:3 bass 
V:1
 [DF][B,D] [DF] | [DB]3 [Dc] [EB][EA] | [EA]3 [EF] [EG][EF] | [Ec]3 [EA] [EG][EF] | %4
 [DB]3 [DF] [B,D][DF] | [DB]3 [Fd] [Fc][FB] | [EG]3 [EG] [E^F][EG] | [=Ec]3 [EB] [EA][EG] | %8
 [Ec]3 [Ge] [Fd][Ec] | [DB]3 [DF] [FB][FA] | [EG]3 [Ec] [EB][EG] | [DF]3 [FB] [EA][Ec] | %12
 [DB]3 [DB] [DB][DA] | [EA]3 [EG] [EG][EF] | [DF]3 [DB] [Ec][Fd] | [Fc]3 [=EB] [EA][EG] | %16
 F3 [DF] [B,D][DF] | [DB]3 [Fd] !fermata![^Fd][Gc] | [GB]3 [Gc] [GB][^CG] | [DF][FB] [EB]2 [EA]2 | %20
 [DB]3 |] %21
V:2
 x3 | x6 | x6 | x6 | x6 | x6 | x6 | x6 | x6 | x6 | x6 | x6 | x6 | x6 | x6 | x6 | F3 x3 | x6 | x6 | %19
 x6 | x3 |] %21
V:3
 [B,,B,][B,,F,] [B,,B,] | [B,,F,]3 [B,,B,] [F,C][F,C] | [F,C]3 [F,A,] [F,B,][F,A,] | %3
 [F,A,]3 [F,C] [F,B,][F,A,] | [B,,B,]3 [B,,B,] [B,,F,][B,,B,] | [B,,F,]3 [B,,B,] [D,B,][D,B,] | %6
 [E,B,]3 [E,B,] [E,A,][E,B,] | [C,B,]3 [C,G,] [C,C][C,B,] | [F,A,]3 [F,A,] [F,G,][F,A,] | %9
 [B,,B,]3 [B,,B,] [D,B,][D,B,] | [E,B,]3 [E,G,] [E,G,][E,B,] | [F,B,]3 [F,D] [F,C][F,A,] | %12
 [B,,B,]3 [B,,F,] [B,,F,][B,,B,] | [F,C]3 [F,B,] [F,B,][F,A,] | [B,,B,]3 [B,,B,] [B,,B,][B,,B,] | %15
 [C,A,]3 [C,G,] [C,C][C,B,] | [F,A,]3 [B,,B,] [B,,F,][B,,B,] | [B,,F,]3 [B,,B,] [D,A,][D,D] | %18
 [G,D]3 [E,E] [E,E][=E,B,] | [F,B,][F,D] [F,C]2 [F,C]2 | [B,,B,]3 |] %21

